X:9322
T:Lassells Hornpipe. GS.091
T:Trumpet Hornpipe,aka. GS.091
M:2/2
L:1/8
Q:180
S:George Spencer m/s, Leeds,1831
R:Hornpipe
O:England
A:Leeds
H:1831
Z:vmp.Cherri Graebe
K:G major
GG G2 GG G2 | BGBd gdBG | DD D2 DD D2 | FDFA cAFD| 
GG G2 GG G2 |! BGBd gdBG | 
gbag fed^c | d2d2d2z2 :||: dd d2 dd d2 | gaba gfed |! edef gdcB | ABcG F
ED
C  |
B,GDG EGDG | B,GDG EGDG | cedc BAGF | G2G2G2z2 :||


